apps/web/public/images/apple-pay.svg

<svg xmlns="http://www.w3.org/2000/svg" width="104" height="32" viewBox="0 0 104 32" fill="none">
    <g style="mix-blend-mode:luminosity" opacity="0.5">
        <path d="M34.5344 3.42871C34.6593 4.62628 34.1857 5.79821 33.4879 6.67102C32.765 7.51934 31.6193 8.19197 30.4726 8.0925C30.3231 6.94514 30.8967 5.72414 31.5447 4.97612C32.2663 4.10263 33.5129 3.4795 34.5344 3.42871Z" fill="black"/>
        <path d="M31.8426 8.91224C32.5874 8.61878 33.5081 8.25607 34.521 8.3164C35.1672 8.36639 37.0311 8.56533 38.2241 10.3297C38.2181 10.3343 38.205 10.3429 38.1854 10.3557C37.8791 10.5561 36.0137 11.7768 36.0373 14.1842C36.0604 17.0524 38.4002 18.1278 38.7117 18.271C38.7323 18.2805 38.7441 18.2859 38.7456 18.2874C38.7443 18.2913 38.742 18.2987 38.7387 18.3094C38.6779 18.5047 38.2735 19.8039 37.3545 21.1469C36.5095 22.3907 35.6394 23.6091 34.2476 23.634C33.5925 23.6461 33.1506 23.4568 32.6906 23.2597C32.2083 23.0531 31.7062 22.8379 30.9179 22.8379C30.0911 22.8379 29.5648 23.0599 29.0588 23.2734C28.6216 23.4578 28.1996 23.6358 27.612 23.6589C26.2702 23.708 25.2518 22.3398 24.4068 21.0971C22.6668 18.5854 21.3496 14.0107 23.139 10.9266C24.0089 9.38499 25.5996 8.41569 27.314 8.39051C28.0624 8.3768 28.7788 8.65991 29.4038 8.90694C29.8788 9.09465 30.301 9.26152 30.6446 9.26152C30.9561 9.26152 31.3629 9.10124 31.8426 8.91224Z" fill="black"/>
        <path fill-rule="evenodd" clip-rule="evenodd" d="M49.0213 4.85059C52.6407 4.85059 55.1611 7.34549 55.1611 10.9779C55.1611 14.6232 52.5889 17.1311 48.9306 17.1311H44.9232V23.504H42.0278V4.85059L49.0213 4.85059ZM44.9232 14.7008H48.2454C50.7662 14.7008 52.2009 13.3436 52.2009 10.9908C52.2009 8.63831 50.7662 7.29387 48.2583 7.29387H44.9232V14.7008Z" fill="black"/>
        <path fill-rule="evenodd" clip-rule="evenodd" d="M55.917 19.6391C55.917 17.2604 57.7396 15.7998 60.9716 15.6187L64.6942 15.3991V14.3521C64.6942 12.8396 63.6729 11.9347 61.967 11.9347C60.3507 11.9347 59.3424 12.7102 59.0971 13.9255H56.46C56.6151 11.4692 58.7091 9.6595 62.0702 9.6595C65.3665 9.6595 67.4734 11.4046 67.4734 14.1322V23.5041H64.7975V21.2678H64.7331C63.9447 22.7803 62.2253 23.7367 60.4415 23.7367C57.7785 23.7367 55.917 22.0821 55.917 19.6391ZM64.6942 18.4111V17.3382L61.3461 17.5449C59.6785 17.6613 58.735 18.3981 58.735 19.5615C58.735 20.7506 59.7174 21.5263 61.2169 21.5263C63.1688 21.5263 64.6942 20.1819 64.6942 18.4111Z" fill="black"/>
        <path d="M69.9996 26.2445V28.5068C70.2061 28.5454 70.9042 28.5714 71.1371 28.5714C73.9551 28.5714 75.2996 27.5114 76.4625 24.2149L81.556 9.90504H78.6088L75.1699 20.9705H75.1185L71.6796 9.90504H68.6552L73.5672 23.517C73.5672 23.5224 73.525 23.663 73.4756 23.8278C73.4057 24.0608 73.3213 24.3421 73.3213 24.3573C72.8949 25.7533 72.1968 26.2962 70.9042 26.2962C70.6713 26.2962 70.2061 26.2962 69.9996 26.2445Z" fill="black"/>
    </g>
</svg>

<svg fill="none" xmlns="http://www.w3.org/2000/svg" viewBox="0 0 104 32"><path d="M34.5 3.4c.2 1.2-.3 2.4-1 3.3-.7.8-1.9 1.5-3 1.4-.2-1.2.4-2.4 1-3.1.8-.9 2-1.5 3-1.6ZM31.8 9c.8-.4 1.7-.7 2.7-.7.7 0 2.5.3 3.7 2-.3.3-2.2 1.5-2.2 3.9 0 2.9 2.4 4 2.7 4v.1c0 .2-.4 1.5-1.3 2.8-.9 1.3-1.8 2.5-3.2 2.5-.6 0-1-.1-1.5-.3-.5-.2-1-.5-1.8-.5s-1.3.3-1.8.5l-1.5.4c-1.3 0-2.3-1.4-3.2-2.6-1.7-2.5-3-7-1.3-10.2a5 5 0 0 1 4.2-2.5c.8 0 1.5.3 2.1.5l1.2.4c.4 0 .8-.2 1.2-.4Z" fill="#71717A" fill-opacity=".5"/><path fill-rule="evenodd" clip-rule="evenodd" d="M49 4.9c3.6 0 6.2 2.4 6.2 6 0 3.7-2.6 6.2-6.3 6.2h-4v6.4H42V4.9h7Zm-4 9.8h3.2c2.6 0 4-1.4 4-3.7 0-2.4-1.4-3.7-4-3.7H45v7.4ZM56 19.6c0-2.3 1.7-3.8 5-4l3.7-.2v-1c0-1.6-1-2.5-2.7-2.5-1.6 0-2.7.8-2.9 2h-2.6c.1-2.4 2.2-4.2 5.6-4.2 3.3 0 5.4 1.7 5.4 4.4v9.4h-2.7v-2.2a4.9 4.9 0 0 1-4.4 2.4c-2.6 0-4.5-1.6-4.5-4Zm8.7-1.2v-1l-3.4.1c-1.6.2-2.6.9-2.6 2 0 1.3 1 2 2.5 2 2 0 3.5-1.3 3.5-3Z" fill="#71717A" fill-opacity=".5"/><path d="M70 26.2v2.3h1.1c2.9 0 4.2-1 5.4-4.3l5-14.3h-2.9l-3.4 11-3.5-11h-3l4.9 13.6-.1.3-.2.6c-.4 1.4-1.1 1.9-2.4 1.9H70Z" fill="#71717A" fill-opacity=".5"/></svg>
